src/img/icons/global-nav.svg

<svg width="32" height="32" viewBox="0 0 32 32" fill="none" xmlns="http://www.w3.org/2000/svg">
<path d="M16.0072 17.0438C16.2941 17.0438 16.5386 16.9404 16.7407 16.7338C16.9427 16.527 17.0438 16.28 17.0438 15.9928C17.0438 15.7059 16.9418 15.4614 16.7379 15.2593C16.5338 15.0573 16.2878 14.9562 16 14.9562C15.7176 14.9562 15.473 15.0582 15.2662 15.2621C15.0596 15.4662 14.9562 15.7122 14.9562 16C14.9562 16.2824 15.0596 16.527 15.2662 16.7338C15.473 16.9404 15.72 17.0438 16.0072 17.0438ZM20.1124 17.0438C20.3994 17.0438 20.6439 16.9404 20.8459 16.7338C21.048 16.527 21.149 16.28 21.149 15.9928C21.149 15.7059 21.0471 15.4614 20.8432 15.2593C20.6391 15.0573 20.3931 14.9562 20.1053 14.9562C19.8229 14.9562 19.5783 15.0582 19.3714 15.2621C19.1648 15.4662 19.0615 15.7122 19.0615 16C19.0615 16.2824 19.1648 16.527 19.3714 16.7338C19.5783 16.9404 19.8253 17.0438 20.1124 17.0438ZM11.9019 17.0438C12.1888 17.0438 12.4333 16.9404 12.6354 16.7338C12.8375 16.527 12.9385 16.28 12.9385 15.9928C12.9385 15.7059 12.8366 15.4614 12.6327 15.2593C12.4285 15.0573 12.1826 14.9562 11.8947 14.9562C11.6124 14.9562 11.3678 15.0582 11.1609 15.2621C10.9543 15.4662 10.851 15.7122 10.851 16C10.851 16.2824 10.9543 16.527 11.1609 16.7338C11.3678 16.9404 11.6148 17.0438 11.9019 17.0438ZM16.0072 21.149C16.2941 21.149 16.5386 21.0457 16.7407 20.8391C16.9427 20.6322 17.0438 20.3852 17.0438 20.0981C17.0438 19.8112 16.9418 19.5667 16.7379 19.3646C16.5338 19.1625 16.2878 19.0615 16 19.0615C15.7176 19.0615 15.473 19.1634 15.2662 19.3673C15.0596 19.5715 14.9562 19.8174 14.9562 20.1053C14.9562 20.3876 15.0596 20.6322 15.2662 20.8391C15.473 21.0457 15.72 21.149 16.0072 21.149ZM20.1124 21.149C20.3994 21.149 20.6439 21.0457 20.8459 20.8391C21.048 20.6322 21.149 20.3852 21.149 20.0981C21.149 19.8112 21.0471 19.5667 20.8432 19.3646C20.6391 19.1625 20.3931 19.0615 20.1053 19.0615C19.8229 19.0615 19.5783 19.1634 19.3714 19.3673C19.1648 19.5715 19.0615 19.8174 19.0615 20.1053C19.0615 20.3876 19.1648 20.6322 19.3714 20.8391C19.5783 21.0457 19.8253 21.149 20.1124 21.149ZM11.9019 21.149C12.1888 21.149 12.4333 21.0457 12.6354 20.8391C12.8375 20.6322 12.9385 20.3852 12.9385 20.0981C12.9385 19.8112 12.8366 19.5667 12.6327 19.3646C12.4285 19.1625 12.1826 19.0615 11.8947 19.0615C11.6124 19.0615 11.3678 19.1634 11.1609 19.3673C10.9543 19.5715 10.851 19.8174 10.851 20.1053C10.851 20.3876 10.9543 20.6322 11.1609 20.8391C11.3678 21.0457 11.6148 21.149 11.9019 21.149ZM16.0072 12.9385C16.2941 12.9385 16.5386 12.8352 16.7407 12.6286C16.9427 12.4217 17.0438 12.1747 17.0438 11.8876C17.0438 11.6006 16.9418 11.3561 16.7379 11.1541C16.5338 10.952 16.2878 10.851 16 10.851C15.7176 10.851 15.473 10.9529 15.2662 11.1568C15.0596 11.3609 14.9562 11.6069 14.9562 11.8947C14.9562 12.1771 15.0596 12.4217 15.2662 12.6286C15.473 12.8352 15.72 12.9385 16.0072 12.9385ZM20.1124 12.9385C20.3994 12.9385 20.6439 12.8352 20.8459 12.6286C21.048 12.4217 21.149 12.1747 21.149 11.8876C21.149 11.6006 21.0471 11.3561 20.8432 11.1541C20.6391 10.952 20.3931 10.851 20.1053 10.851C19.8229 10.851 19.5783 10.9529 19.3714 11.1568C19.1648 11.3609 19.0615 11.6069 19.0615 11.8947C19.0615 12.1771 19.1648 12.4217 19.3714 12.6286C19.5783 12.8352 19.8253 12.9385 20.1124 12.9385ZM11.9019 12.9385C12.1888 12.9385 12.4333 12.8352 12.6354 12.6286C12.8375 12.4217 12.9385 12.1747 12.9385 11.8876C12.9385 11.6006 12.8366 11.3561 12.6327 11.1541C12.4285 10.952 12.1826 10.851 11.8947 10.851C11.6124 10.851 11.3678 10.9529 11.1609 11.1568C10.9543 11.3609 10.851 11.6069 10.851 11.8947C10.851 12.1771 10.9543 12.4217 11.1609 12.6286C11.3678 12.8352 11.6148 12.9385 11.9019 12.9385ZM16.0024 29C14.2043 29 12.5142 28.6588 10.9321 27.9764C9.34993 27.294 7.97375 26.368 6.80353 25.1982C5.6333 24.0284 4.70676 22.6528 4.02392 21.0714C3.34131 19.4899 3 17.8003 3 16.0024C3 14.2043 3.34119 12.5142 4.02358 10.9321C4.70596 9.34993 5.63204 7.97375 6.80182 6.80353C7.97159 5.6333 9.34719 4.70676 10.9286 4.02392C12.5101 3.34131 14.1997 3 15.9976 3C17.7957 3 19.4858 3.34119 21.0679 4.02358C22.6501 4.70596 24.0262 5.63204 25.1965 6.80182C26.3667 7.97159 27.2932 9.34719 27.9761 10.9286C28.6587 12.5101 29 14.1997 29 15.9976C29 17.7957 28.6588 19.4858 27.9764 21.0679C27.294 22.6501 26.368 24.0262 25.1982 25.1965C24.0284 26.3667 22.6528 27.2932 21.0714 27.9761C19.4899 28.6587 17.8003 29 16.0024 29ZM15.9938 27.2806C19.1177 27.2806 21.7799 26.1825 23.9803 23.9864C26.1805 21.7901 27.2806 19.13 27.2806 16.0062C27.2806 12.8823 26.1825 10.2201 23.9864 8.01971C21.7901 5.81952 19.13 4.71942 16.0062 4.71942C12.8823 4.71942 10.2201 5.81746 8.01971 8.01355C5.81952 10.2099 4.71942 12.87 4.71942 15.9938C4.71942 19.1177 5.81746 21.7799 8.01355 23.9803C10.2099 26.1805 12.87 27.2806 15.9938 27.2806Z" fill="#131212"/>
</svg>

<svg xmlns="http://www.w3.org/2000/svg" viewBox="0 0 32 32">
  <path fill="currentColor" d="M16.007 17.044a.988.988 0 0 0 .734-.31c.202-.207.303-.454.303-.741a.995.995 0 0 0-.306-.734 1.011 1.011 0 0 0-.738-.303 1.01 1.01 0 0 0-.734.306 1 1 0 0 0-.31.738c0 .282.104.527.31.734.207.206.454.31.741.31Zm4.105 0a.988.988 0 0 0 .734-.31c.202-.207.303-.454.303-.741a.995.995 0 0 0-.306-.734 1.011 1.011 0 0 0-.738-.303 1.01 1.01 0 0 0-.734.306 1 1 0 0 0-.31.738c0 .282.104.527.31.734.207.206.454.31.741.31Zm-8.21 0a.988.988 0 0 0 .733-.31 1.02 1.02 0 0 0 .303-.741.995.995 0 0 0-.305-.734 1.011 1.011 0 0 0-.738-.303 1.01 1.01 0 0 0-.734.306 1 1 0 0 0-.31.738c0 .282.103.527.31.734.207.206.454.31.74.31Zm4.105 4.105a.988.988 0 0 0 .734-.31c.202-.207.303-.454.303-.74a.995.995 0 0 0-.306-.734 1.01 1.01 0 0 0-.738-.303 1.01 1.01 0 0 0-.734.305 1 1 0 0 0-.31.738c0 .283.104.527.31.734.207.207.454.31.741.31Zm4.105 0a.988.988 0 0 0 .734-.31c.202-.207.303-.454.303-.74a.995.995 0 0 0-.306-.734 1.01 1.01 0 0 0-.738-.303 1.01 1.01 0 0 0-.734.305 1 1 0 0 0-.31.738c0 .283.104.527.31.734.207.207.454.31.741.31Zm-8.21 0a.988.988 0 0 0 .733-.31 1.02 1.02 0 0 0 .303-.74.995.995 0 0 0-.305-.734 1.011 1.011 0 0 0-.738-.303 1.01 1.01 0 0 0-.734.305 1 1 0 0 0-.31.738c0 .283.103.527.31.734.207.207.454.31.74.31Zm4.105-8.21a.988.988 0 0 0 .734-.31c.202-.207.303-.454.303-.741a.994.994 0 0 0-.306-.734 1.01 1.01 0 0 0-.738-.303 1.01 1.01 0 0 0-.734.306 1 1 0 0 0-.31.738c0 .282.104.527.31.734.207.206.454.31.741.31Zm4.105 0a.988.988 0 0 0 .734-.31c.202-.207.303-.454.303-.741a.994.994 0 0 0-.306-.734 1.01 1.01 0 0 0-.738-.303 1.01 1.01 0 0 0-.734.306 1 1 0 0 0-.31.738c0 .282.104.527.31.734.207.206.454.31.741.31Zm-8.21 0a.988.988 0 0 0 .733-.31 1.02 1.02 0 0 0 .303-.741.994.994 0 0 0-.305-.734 1.011 1.011 0 0 0-.738-.303 1.01 1.01 0 0 0-.734.306 1 1 0 0 0-.31.738c0 .282.103.527.31.734.207.206.454.31.74.31ZM16.002 29c-1.798 0-3.488-.341-5.07-1.024a13.13 13.13 0 0 1-4.128-2.778 13.13 13.13 0 0 1-2.78-4.127C3.34 19.49 3 17.801 3 16.002c0-1.798.341-3.488 1.024-5.07a13.13 13.13 0 0 1 2.778-4.128 13.13 13.13 0 0 1 4.127-2.78C12.51 3.34 14.199 3 15.998 3c1.798 0 3.488.341 5.07 1.024a13.13 13.13 0 0 1 4.128 2.778 13.13 13.13 0 0 1 2.78 4.127C28.66 12.51 29 14.199 29 15.998c0 1.798-.341 3.488-1.024 5.07a13.13 13.13 0 0 1-2.778 4.128 13.131 13.131 0 0 1-4.127 2.78C19.49 28.66 17.801 29 16.002 29Zm-.008-1.72c3.124 0 5.786-1.098 7.986-3.294 2.2-2.196 3.3-4.856 3.3-7.98 0-3.124-1.098-5.786-3.294-7.986-2.196-2.2-4.856-3.3-7.98-3.3-3.124 0-5.786 1.097-7.986 3.294-2.2 2.196-3.3 4.856-3.3 7.98 0 3.124 1.097 5.786 3.294 7.986 2.196 2.2 4.856 3.3 7.98 3.3Z"/>
</svg>
